!!!OTL: Richu dongfang fang hongguang
!!!ARE: Asia, China,ÿJiangsu Xinghua
!! III, 452
!!!SCT: C2018
!!!YEM: Copyright 1995, estate of Helmut Schaffrath.
**kern
*ICvox
*Ivox
!! Mixed meters:  2/4; 3/4
*M3/4
*k[f#c#]
*D:
{8ee
16ee
16dd
8dd
16dd
16b
=1
8b
16b
16dd
8f#
8f#}
=2
{16ee
16ee
16ee
16ff#
8ee
16dd
16b
=3
4a
4a}
=4
{16f#
16a
16a
16f#
8.a
16f#
=5
8.a
16b
8dd
8dd}
=6
{16ee
16r
16dd
16b
16a
16f#
16dd
16b
=7
16a
16b
16f#
16e
8d
8d}
=8
{8f#
16f#
16e
8d
8d}
=9
{8f#
16f#
16e
8d
8d}
=10
{16ee
16ee
16ee
16ee
8dd
8ee
=11
8b
8b
4a
4a}
=12
{16a
16f#
16a
16b
8.f#
16e
4d}
=13
*M2/4
{16a
16f#
16a
16b
8f#
8f#}
=14
{16a
16f#
16a
16b
8f#
8f#}
=15
{2r
=16
2r
=17
2r
=18
2r
=19
2r
=20
2r}
=21
{16a
16a
16a
16b
8dd
16dd
16b
=22
8a
8g#
4a}
==
!!!AGN: Haozi, Cheshui haozi
!! Vivid
!!!AMT: irregular
!!!AIN: vox
!!!EED: Helmut Schaffrath
!!!EEV: 1.0
*-
